build/img/download.svg

<svg width="24" height="24" viewBox="0 0 24 24" fill="none" xmlns="http://www.w3.org/2000/svg">
<path fill-rule="evenodd" clip-rule="evenodd" d="M8.20711 10.7929L7.5 10.0858L6.08579 11.5L6.79289 12.2071L11.2929 16.7071L12 17.4142L12.7071 16.7071L17.2071 12.2071L17.9142 11.5L16.5 10.0858L15.7929 10.7929L13 13.5858L13 3V2L11 2V3L11 13.5858L8.20711 10.7929ZM4 16V15H2V16L2 20C2 21.1046 2.89543 22 4 22L20 22C21.1046 22 22 21.1046 22 20L22 16V15H20V16L20 20L4 20V16Z" fill="#151515"/>
</svg>

<svg width="24" height="24" viewBox="0 0 24 24" fill="none" xmlns="http://www.w3.org/2000/svg"><path fill-rule="evenodd" clip-rule="evenodd" d="M8.207 10.793l-.707-.707L6.086 11.5l.707.707 4.5 4.5.707.707.707-.707 4.5-4.5.707-.707-1.414-1.414-.707.707L13 13.586V2h-2v11.586l-2.793-2.793zM4 16v-1H2v5a2 2 0 002 2h16a2 2 0 002-2v-5h-2v5H4v-4z" fill="#151515"/></svg>
